X:1
T:Ancient Greek Scales (viola)
T:Tonics from Proslambanomenos to Lichanos Meson 
L:1/8
M:4/4
K:C
V:1 alto nm="Piano"
V:1
"^Possible \"Pre-Dorian\" Pentatonic" E,2 F,2 A,2 B,2 | C2 E2 C2 B,2 | A,2 F,2 E,2 z2 | %3
"^Possible \"Pre-Hypodorian\" Pentatonic" A,2 C2 D2 E2 | G2 A2 G2 E2 | D2 C2 A,2 z2 | %6
"^Possible \"Pre-Lydian\" Pentatonic" C2 E2 F2 A2 | B2 c2 B2 A2 | F2 E2 C2 z2 |] %9
"^Diatonic Hypodorian" A,2 B,2 C2 D2 | E2 F2 G2 A2 | G2 F2 E2 D2 | C2 B,2 A,2 z2 | %13
"^Diatonic Mixolydian" B,2 C2 D2 E2 | F2 G2 A2 B2 | A2 G2 F2 E2 | D2 C2 B,2 z2 | %17
"^Diatonic Lydian" C2 D2 E2 F2 | G2 A2 B2 c2 | B2 A2 G2 F2 | E2 D2 C2 z2 | %21
"^Diatonic Phrygian" D,2 E,2 F,2 G,2 | A,2 B,2 C2 D2 | C2 B,2 A,2 G,2 | F,2 E,2 D,2 z2 | %25
"^Diatonic Dorian" E,2 F,2 G,2 A,2 | B,2 C2 D2 E2 | D2 C2 B,2 A,2 | G,2 F,2 E,2 z2 | %29
"^Diatonic Hypolydian" F,2 G,2 A,2 B,2 | C2 D2 E2 F2 | E2 D2 C2 B,2 | A,2 G,2 F,2 z2 | %33
"^Diatonic Hypophrygian" G,2 A,2 B,2 C2 | D2 E2 F2 G2 | F2 E2 D2 C2 | B,2 A,2 G,2 z2 |] %37
"^Chromatic Hypodorian" C2 D2 _E2 _F2 | G2 _A2 __B2 c2 | __B2 _A2 G2 _F2 | _E2 D2 C2 z2 | %41
"^Chromatic Mixolydian" C2 _D2 __E2 F2 | _G2 __A2 _B2 c2 | _B2 __A2 _G2 F2 | __E2 _D2 C2 z2 | %45
"^Chromatic Lydian" C2 _D2 E2 F2 | _G2 A2 _B2 c2 | _B2 A2 _G2 F2 | E2 _D2 C2 z2 | %49
"^Chromatic Phrygian" C2 ^D2 E2 F2 | ^G2 ^A2 B2 c2 | B2 ^A2 ^G2 F2 | E2 ^D2 C2 z2 | %53
"^Chromatic Dorian" C2 _D2 __E2 F2 | G2 _A2 __B2 c2 | __B2 _A2 G2 F2 | __E2 _D2 C2 z2 | %57
"^Chromatic Hypolydian" C2 _D2 E2 ^F2 | G2 _A2 B2 c2 | B2 _A2 G2 ^F2 | E2 _D2 C2 z2 | %61
"^Chromatic Hypophrygian" C2 ^D2 ^E2 ^F2 | G2 ^A2 B2 c2 | B2 ^A2 G2 ^F2 | ^E2 ^D2 C2 z2 |] %65
"^Enharmonic Hypodorian" C2 D2 D2 _E2 | G2 G2 _A2 c2 | _A2 G2 G2 _E2 | D2 D2 C2 z2 | %69
"^Enharmonic Mixolydian" C2 C2 _D2 F2 | F2 _G2 ^A2 c2 | ^A2 _G2 F2 F2 | _D2 C2 C2 z2 | %73
"^Enharmonic Lydian" C2 C2 E2 F2 | F2 A2 B2 c2 | B2 A2 F2 F2 | E2 C2 C2 z2 | %77
"^Enharmonic Phrygian" C2 E2 E2 F2 | A2 B2 B2 c2 | B2 B2 A2 F2 | E2 E2 C2 z2 | %81
"^Enharmonic Dorian" C2 C2 _D2 F2 | G2 G2 ^G2 c2 | ^G2 =G2 G2 F2 | _D2 C2 C2 z2 | %85
"^Enharmonic Hypolydian" C2 C2 E2 F2 | G2 G2 B2 c2 | B2 G2 G2 F2 | E2 C2 C2 z2 | %89
"^Enharmonic Hypophrygian" C2 E2 ^F2 =F2 | G2 B2 B2 c2 | B2 B2 G2 F2 | ^F2 E2 C2 z2 |] %93

